X:1
T:Almand: 1st movt from Suite No. 4 in D minor
T:Almand
T:John Alcock
T:1st movt from Suite No. 4 in D minor
T:Public Domain
T:Public Domain
C:John Alcock
Z:Public Domain
%%score { 1 | 2 }
L:1/8
Q:1/4=76
M:2/2
K:F
V:1 treble nm="Piano" snm="Pno."
V:2 bass 
V:1
 a/ | a/A/=B/^c/ d/f/e/d/ c/e/G/_B/ A/G/F/E/ | F/E/F/A/ G/F/E/D/ T^C2 z a |[K:F] Mb2 z g Ma2 z f | %4
 Mg2 z e f/a/d/f/ ^c/e/A/a/ | f/a/d/f/ ^c/e/A/e/ f/d/e/=c/ d/=B/c/A/ | %6
[K:F] TA^G z =B c/A/B/c/ d/e/f/A/ | T^G2 z e Mf2 z d | Me2 z c Md2 z =B | %9
 c/e/A/c/ ^G/=B/E/e/ c/e/A/c/ G/B/E/B/ | c/A/d/=B/ e/c/f/d/ ^g/e/a/^f/ =b/g/c'/a/ | %11
 d'/^c'/d'- d'/d'/=c'/=b/ d'/c'/b/a/ c'/b/a/^g/ | a=g/f/ e/d/=c/=B/ c/^G/A/B/ ETG | %13
 A=G/F/ E/D/C/=B,/ CA, z E | A/^G/A/c/ =B/A/B/G/ MA3 z/ :: e/ | %16
 e/E/^F/^G/ A/c/=B/A/ G/F/E/F/ G/A/B/c/ | d/c/=B/c/ d/B/e/d/ ^c/B/A z z/ a/ | %18
 a/A/=B/^c/ d/f/e/d/ c/B/A/B/ c/d/e/f/ | g/f/e/f/ g/e/a/g/ f/e/d/e/ f/g/a/^f/ | gb ad' bg ac' | %21
 b/a/b/g/ T^f>g g/a/b/a/ b/g/=f/e/ | Mfa gc' Taf gb | a/g/a/f/ Te>f f/a/g/a/ d/a/g/f/ | %24
 g/e/d/e/ ^c/g/f/e/ f/d/=c/d/ B/f/e/d/ | e/c/B/c/ A/e/d/^c/ d/B/A/B/ G/f/e/d/ | %26
 ^c/=B/A/B/ c/d/e/c/ Mdf Tea | Mfd Teg f/e/f/d/ T^c>d | d=c/B/ A/G/F/E/ MFD z A | %29
 d/^c/d/f/ e/d/e/c/ Md3 z/ :| %30
V:2
 z/ | DD, F,G, A,A,, ^C,A,, | D,=C, B,,G,, A,,/A,/G,/A,/ F,/A,/D,/F,/ | %3
[K:F] G,/B,/A,/B,/ E,/G,/=C,/E,/ F,/A,/G,/A,/ D,/F,/B,,/D,/ | %4
 E,/G,/F,/G,/ ^C,/E,/A,,/C,/ D,F, A,C, | D,F, A,^C, D,2 z F, | %6
[K:F] E,/=B,/E/D/ C/=B,/A,/^G,/ A,=G, F,D, | E,/E/D/E/ C/E/A,/C/ D/F/E/F/ =B,/D/=G,/B,/ | %8
 C/E/D/E/ A,/C/F,/A,/ =B,/D/C/D/ ^G,/B,/E,/G,/ | A,C, E,^G, A,A,, E,^G,, | %10
 A,,=B,, C,D, E,^F, ^G,A, | =B,A, ^G,E, A,C DE | F2 z ^G, A,D, E,E,, | %13
 A,,2 z E, A,=G,/F,/ E,/D,/C,/=B,,/ | C,A,, E,E,, A,,3 z/ :: z/ | A,A,, C,D, E,E,, z A, | %17
 =B,A, ^G,E, A,>_B, A,/=G,/F,/E,/ | F,E, F,G, A,A,, z D | ED ^CA, DD, z D | %20
 B,/D/G,/D/ ^F,/D/D,/D/ G,/D/B,/D/ F,/D/D,/D/ | G,C DD, G,2 z C | %22
 A,/C/F,/C/ E,/C/C,/C/ F,/C/A,/C/ E,/C/C,/C/ | F,B, CC, F,F,, z D, | E,G, A,^C, D,F, G,B,, | %25
 =C,E, F,A,, B,,D, E,G, | A,A,, z A, F,/A,/D,/A,/ ^C,/A,/A,,/A,/ | %27
 D,/A,/F,/A,/ ^C,/A,/A,,/A,/ D,G, A,A,, | D,2 z A, D=C/B,/ A,/G,/F,/E,/ | F,D, A,A,, D,,3 z/ :| %30

